X:63
T:Joc de Leag\^ane
O:rumania
M:4/4
L:1/8
Q:1/4=
K:Cm
V:1
"Cm" E6 FG |"Ab" F4 {G}F2 ED |"Cm" C2 C4 DE |F2 G6 |
"Bb" B6 cd |"Eb" c4 {d}c2 BG |"Cm" G2 G6 |"Gm" G2 G6 |
"Bb" B6 cd |"Eb" c4 c2 BG |"Cm" G2 G4 F2 |"Eb" E2 B,4 z2 |
"Ab" B2 (B2 B)G GF |"F" G2 (F2 F)E DC |"Cm" C2 C6 |C2 C4 z2 |]
V:2          %2e stem
z2 |  |8 |C8 |
C8 |C8 |C6 z2 |F6 F2 |
G6 E2 |F2 E6 |D2 D4 z2 |F6 F2 |
G6 F2 |E6 D2 |E2 B,4 z2 |E6 EC |
D2 D6 |C2 C6 |C2 C4 z2 |]
V:3          %3e stem
z2 |  |8 8 |C6 B,2 |
G,6 B,2 |C2 C6 |D2 E4 z2 |D6 B,2 |
E6 C2 |D2 C6 |B,2 B,4 z2 |D6 B,2 |
E6 D2 |E6 G,2 |G,2 G,4 z2 |(C6 C)G, |
B,2 B,6 |C2 C6 |C2 C4 z2 |]





